X:8
T:Sandy Boys
M:4/4
L:1/8
Z:abc-transcription Josh Larios <hades@elsewhere.org>, 2014.01.13
B:Complete Tractor, p.172
N:Chords from Sarah Comer
K:A mix
eg |: "A"a2 g2 e2 g2 | ed c2 A2 a2- | a2 g2 e2 g2 | "G"a3 b a2 eg |
"A"a2 g2 e2 g2 | ed c2 A2 AB | c2 cc "E7"d2 c2 | "A"A3 B A2 cd :|
|: "A"e4 e3 e | d2 c2 A3 A | "A"[ce]2 [ce][ce] "D"[df]2 [df][df] |"A"[ce]2 [ce][ce] "D"[df]2 [df][df] |
"A"e4 e3 e | d2 c2 A2 AB | [ce]2 cc "E7"d2 c2 | "A"A3 B A2 :|

